X:173
T:Moonlight on the Lough
C:Tim Maloney
B:Terry "Cuz" Teahan "Sliabh Luachra on Parade" 1980
Z:Patrick Cavanagh
M:4/4
L:1/8
R:Reel
K:D
| E2BE dBeB | dBAF DEFA | E2BE dBeB | dBAF BEED | 
E2BE dBeB | dBAF DEFA | E2BE dBeB | dBAF B2E2 | 
| Beef gfed | BdAF DEFA | Beef gfed | BdAd BEE2 | 
Beef gfed | BdAF DEFA | afge fded | B/c/d AF BGED || 

